X:1
T: Eric's Trip to the Pavilion
C:Gordy Euler
R:Reel
Q: 232
K:Dm
M:4/4
L:1/8
|:FE DF E2 FE|D2 AD BD AF|G2 BG cG BG|A3A, =B,^C DE|
FE DF E2 FE|D2 AD BD AF|G2 BG cG AB|AG FE D4:|
|:DA ^GA =GB AB|Ad ^cd BG AB|AB AG FD EF|EF EG E^G AA,|
DA ^GA =GB AB|Ad ^ce fg aB|GB AG FD FG|AG FE D4:|
